X: 223
T: My Love is a Lady
R: air, jig
%S: s:2 b:14(7+7)
B: O'Neill's 1850 #223
O: "Collected by F.O'Neill"
Z: 1997 by John Chambers <jc@trillian.mit.edu>
N: Compacted via repeats and multiple endings [JC]
Q: "Playful"
M: 6/8
L: 1/8
K: G
"^A"[|] G |: d>ed (gab) | {b}agf g2(f/e/) |[1 dcB GFG | BAz z2(B/c/) :|[2 dBG FDA | G3- G2 \
"^B"|[| d | g>ag bag |
                     | c'ba b/g/z2 | afd g>ag | {f}ed^c d2 \
"^C"|| d | b>gd (B/G/) z (a/b/) | c'ag (f/d/) z (e/f/) | gBd FDA | G3- G2 |]
